!!!OTL: Der Bettelmann (Band 1), S. 129
!!!id: P0816
**kern
*clefG2
*k[b-]
*F:
{8c
=1
4c
4f
=2
8f
8f
8f
8f
=3
8e
8g
8g
8g
=4
4.g}
=5
{8g
=6
4f
4cc
=7
8c
8c
8c
8g
=8
4e
4d
=9
4.c}
=10
{8cc
=11
4cc
4b-
=12
8a
8cc
8dd
8cc
=13
4b-
4a
=14
4.g}
=15
{8cc
=16
4cc
4cc
=17
8cc
8b-
8a
8g
=18
4f
8f
8f
=19
4.f}
==
*-
!!!minrhy: 8
!!!meters: 2/4 ]  ZZ[4
!!!cut: Der Bettelmann (Band 1), S. 129
!!!reg: Lothringen
!!!trd: PINCK, Louis: Verklingende Weisen, Bd 1, Metz 1928
!!!rhy1: X  X_X_  XXXX  XXXX  X_.
!!!rhy2: X  X_X_  XXXX  X_X_  X_.
!!!key: P0816  08  F 2/4 ]  ZZ[4
!!!mod: HEPTATONIK IONISCH]  AMBITUS[9
!!!kad: 2-521
!!!akz: -51-72_1-5-7-5_5342_5511_
!!!fot: 'a__b__c__d__
!!!for: 'a__b__b__c__
!!!fok: '/__^d_Sd_\__
!! PHRAS[AUFTAKTIG]
!!!fkt: Standesunterschied, Beischlaf
!! LOTH VKL
!! PR[9] 2K[6] 2G[24] 3K[12] 3G[0] 4A[3] 4Ü[0] 5A[0] 6K[0] 6G[0]
!! 7K[0] 7G[3] 8A[0] MEHR[0] SI[47] ABS[34] SR[29] SP[18]
!! ST[10] 2k[12] 2g[21] 3k[0] 3g[0] 4d[6] 4ü[0] 5d[3] 6k[0] 6g[0]
!! 7k[0] 7g[3] 8d[0] mehr[0] si[44] dm[+3] sr[32] sp[12]
!! 1F[92] 2F[8] 3F[0] 4F[0] LF[0] 2P[0] 3P[0] 4P[0] TRI[0] DF[2] AB[37]
!! TF[0] U3K[0] U3[0] U4[0] U4Ü[0] U5[0] U6K[0] U6[0] U7K[0] U7[0]
!! N1[17] N2K[0] N2[14] N3K[23] N3[0] N4[20] N4Ü[0] N5[14] N6K[9] N6[0]
!!!n7k: 0] N7[3] O1[0] O2K[0] O2[0] O3K[0] O3[0] HÖ[0
